static/assets/img/decorations/deco-ring-1.svg

<svg width="257" height="200" viewBox="0 0 257 200" fill="none" xmlns="http://www.w3.org/2000/svg">
<path d="M52.4279 199.385C43.0839 199.209 36.3889 195.125 32.1679 186.768C27.0589 176.651 23.0699 166.059 18.5959 155.67C14.4909 146.139 11.7989 136.287 9.8339 126.129C8.3399 118.4 6.2499 110.777 4.2029 103.166C1.6089 93.512 1.1799 83.586 0.327904 73.727C0.0159039 70.11 0.526895 66.342 1.17789 62.735C3.21689 51.438 5.9829 40.346 11.6529 30.198C17.3889 19.928 24.6629 11.067 34.9749 5.09298C41.4319 1.35298 48.4239 -0.117996 55.8949 0.868004C57.9049 1.134 59.9499 1.2 61.9789 1.225C71.0429 1.332 79.9579 2.518 88.7739 4.635C99.0339 7.1 109.327 9.44598 119.891 10.244C124.323 10.578 128.77 10.765 133.196 11.16C142.811 12.017 152.415 13.006 162.03 13.869C169.618 14.551 177.214 15.588 184.811 15.637C194.612 15.698 203.692 17.942 212.225 22.553C219.284 26.367 225.918 30.826 232.161 35.899C237.325 40.096 239.942 45.866 242.524 51.674C245.827 59.108 248.79 66.699 252.278 74.043C253.758 77.166 254.821 80.272 255.723 83.602C258.006 92.018 256.088 99.834 252.858 107.36C247.544 119.743 238.922 129.653 228.809 138.475C223.024 143.522 217.065 148.209 210.334 151.858C201.387 156.712 192.336 161.282 182.279 163.602C175.226 165.229 168.332 167.526 161.322 169.358C150.377 172.221 139.363 174.829 128.441 177.782C124.039 178.973 119.779 180.723 115.502 182.346C108.85 184.867 102.33 187.789 95.5759 189.989C90.2869 191.712 84.7239 192.6 79.2829 193.852C73.0899 195.278 66.9079 196.752 60.6949 198.086C57.9729 198.67 55.1859 198.961 52.4279 199.385ZM2.4139 69.891C2.8909 77.291 2.8549 82.676 3.6699 87.928C4.8339 95.455 6.5329 102.903 8.1679 110.348C9.3969 115.936 11.0959 121.424 12.2069 127.03C13.8459 135.284 15.6869 143.446 19.1909 151.153C20.4529 153.928 21.7179 156.725 22.6929 159.61C25.8409 168.926 30.5069 177.551 34.7049 186.391C37.0959 191.42 40.8749 194.725 46.3479 195.953C47.9519 196.312 49.6189 196.803 51.2149 196.682C54.9999 196.397 58.7989 195.971 62.5239 195.246C66.6369 194.447 70.6199 192.838 74.7529 192.307C87.1079 190.719 98.8939 187.225 110.206 182.157C122.585 176.61 135.595 173.192 148.706 169.997C166.852 165.575 185.198 161.819 202.196 153.577C208.983 150.286 215.481 146.638 221.26 141.774C223.399 139.973 225.467 138.086 227.641 136.329C237.504 128.349 245.12 118.612 250.375 107.075C252.391 102.651 253.904 98.11 252.98 93.059C252.503 90.45 252.259 87.741 252.384 85.1C252.501 82.6 251.993 80.356 251.236 78.032C247.797 67.473 242.777 57.591 238.306 47.475C236.376 43.108 233.327 39.489 229.482 36.631C226.017 34.059 222.412 31.676 218.953 29.096C211.025 23.188 202.168 19.569 192.383 18.366C187.85 17.807 183.258 17.751 178.699 17.372C170.855 16.718 163.011 16.044 155.178 15.274C150.75 14.838 146.356 14.057 141.926 13.686C136.612 13.239 131.27 13.122 125.947 12.75C121.259 12.422 116.533 12.232 111.91 11.461C104.894 10.293 97.9309 8.775 90.9859 7.225C81.2789 5.059 71.5269 3.41799 61.5349 3.57699C59.8899 3.60399 58.2319 3.431 56.5989 3.208C47.8569 2.015 39.8019 4.02999 32.7179 9.07699C24.4229 14.985 18.0729 22.706 13.2099 31.694C9.53991 38.479 7.1459 45.712 5.4439 53.155C4.0329 59.334 3.1679 65.637 2.4139 69.891Z" fill="black"/>
</svg>

<svg fill="none" height="200" viewBox="0 0 257 200" width="257" xmlns="http://www.w3.org/2000/svg"><path d="m52.4279 199.385c-9.344-.176-16.039-4.26-20.26-12.617-5.109-10.117-9.098-20.709-13.572-31.098-4.105-9.531-6.797-19.383-8.762-29.541-1.494-7.729-3.584-15.352-5.631-22.963-2.594-9.654-3.023-19.58-3.874996-29.439-.3120001-3.617.198991-7.385.849986-10.992 2.039-11.297 4.80501-22.389 10.47501-32.537 5.736-10.27 13.01-19.131 23.322-25.10502 6.457-3.74 13.449-5.210976 20.92-4.224976 2.01.265996 4.055.331996 6.084.356996 9.064.107 17.979 1.293 26.795 3.41 10.26 2.465 20.5531 4.81098 31.1171 5.609 4.432.334 8.879.521 13.305.916 9.615.857 19.219 1.846 28.834 2.709 7.588.682 15.184 1.719 22.781 1.768 9.801.061 18.881 2.305 27.414 6.916 7.059 3.814 13.693 8.273 19.936 13.346 5.164 4.197 7.781 9.967 10.363 15.775 3.303 7.434 6.266 15.025 9.754 22.369 1.48 3.123 2.543 6.229 3.445 9.559 2.283 8.416.365 16.232-2.865 23.758-5.314 12.383-13.936 22.293-24.049 31.115-5.785 5.047-11.744 9.734-18.475 13.383-8.947 4.854-17.998 9.424-28.055 11.744-7.053 1.627-13.947 3.924-20.957 5.756-10.945 2.863-21.959 5.471-32.881 8.424-4.402 1.191-8.662 2.941-12.939 4.564-6.652 2.521-13.172 5.443-19.9261 7.643-5.289 1.723-10.852 2.611-16.293 3.863-6.193 1.426-12.375 2.9-18.588 4.234-2.722.584-5.509.875-8.267 1.299zm-50.014-129.494c.477 7.4.441 12.785 1.256 18.037 1.164 7.527 2.863 14.975 4.498 22.42 1.229 5.588 2.928 11.076 4.039 16.682 1.639 8.254 3.48 16.416 6.984 24.123 1.262 2.775 2.527 5.572 3.502 8.457 3.148 9.316 7.814 17.941 12.012 26.781 2.391 5.029 6.17 8.334 11.643 9.562 1.604.359 3.271.85 4.867.729 3.785-.285 7.584-.711 11.309-1.436 4.113-.799 8.096-2.408 12.229-2.939 12.355-1.588 24.141-5.082 35.4531-10.15 12.379-5.547 25.389-8.965 38.5-12.16 18.146-4.422 36.492-8.178 53.49-16.42 6.787-3.291 13.285-6.939 19.064-11.803 2.139-1.801 4.207-3.688 6.381-5.445 9.863-7.98 17.479-17.717 22.734-29.254 2.016-4.424 3.529-8.965 2.605-14.016-.477-2.609-.721-5.318-.596-7.959.117-2.5-.391-4.744-1.148-7.068-3.439-10.559-8.459-20.441-12.93-30.557-1.93-4.367-4.979-7.986-8.824-10.844-3.465-2.572-7.07-4.955-10.529-7.535-7.928-5.908-16.785-9.527-26.57-10.73-4.533-.559-9.125-.615-13.684-.994-7.844-.654-15.688-1.328-23.521-2.098-4.428-.436-8.822-1.217-13.252-1.588-5.314-.447-10.656-.564-15.979-.936-4.688-.328-9.414-.518-14.037-1.289-7.016-1.168-13.9791-2.686-20.9241-4.236-9.707-2.166-19.459-3.80701-29.451-3.64801-1.645.027-3.303-.14599-4.936-.36899-8.742-1.193-16.797.82199-23.881 5.86899-8.295 5.90801-14.645 13.62901-19.508 22.61701-3.66999 6.785-6.064 14.018-7.766 21.461-1.411 6.179-2.276 12.482-3.03 16.736z" fill="#000"/></svg>
